X: 1
T:Mynah Bird - schottische/schottisch/scottish
C:Cliff Stapleton
B: "Encyclopdia Blowzabellica", Dragonfly music, Newbiggin by the Sea, 1987
Z:abc transcription Simon Wascher
N:please mail errors to: simon.wascher@chello.at
M:2/4
L:1/16
K:G dorian
=Bc|d2=B2c2A2|_BcBAG4|D^FAB A2AG|ABAG A2=Bc|
d2=B2 c2A2|_BcBAG4|D^FAB A2AG|^FGAFG2:|
|:GA|B3B A2G2|AG^FE DEFG|BGDG dBGB|AGAB A2GA|
B3B A2G2|AG^FE DEFG|BGDG ^FGAF|G4G2:|
